brandFactory_export/1.Light/Tirita_1Light.svg

<?xml version="1.0" encoding="UTF-8"?>
<svg width="24px" height="24px" viewBox="0 0 24 24" version="1.1" xmlns="http://www.w3.org/2000/svg" xmlns:xlink="http://www.w3.org/1999/xlink">
    <title>1.Light/Tirita_1Light</title>
    <g id="Symbols" stroke="none" stroke-width="1" fill="none" fill-rule="evenodd">
        <g id="1.Light/Tirita_1Light" fill="#5CB615" fill-rule="nonzero">
            <path d="M20.6319328,20.6151261 C23.2369748,18.0134454 23.3210084,15.3747899 20.8907563,12.7798319 C20.8369748,12.7159664 20.789916,12.6756303 20.7462185,12.6319328 L20.6386555,12.5277311 L19.4991597,11.3882353 L11.4084034,19.4823529 L11.9697479,20.0403361 C12.097479,20.1882353 12.2151261,20.2991597 12.3361345,20.4134454 L12.5512605,20.6218487 C15.2302521,23.3008403 17.9495798,23.297479 20.6319328,20.6151261 Z M3.03193277,11.102521 L3.23697479,11.3142857 C3.3512605,11.4319328 3.46218487,11.5529412 3.58319328,11.6571429 L3.97647059,12.0504202 L12.0705882,3.95630252 L10.994958,2.88067227 C9.69747899,1.62352941 8.38655462,0.991596639 7.0789916,0.991596639 C5.72773109,0.991596639 4.37310924,1.6605042 3.03193277,3.00504202 C0.346218487,5.69411765 0.346218487,8.41680672 3.03193277,11.102521 Z M4.68907563,12.7596639 L10.6991597,18.7697479 L18.789916,10.6756303 L12.7798319,4.66554622 L4.68907563,12.7596639 L4.68907563,12.7596639 Z M21.6369748,12.1109244 C24.410084,15.0722689 24.312605,18.3495798 21.3378151,21.3243697 C19.805042,22.8571429 18.1915966,23.6268908 16.5815126,23.6268908 C14.9714286,23.6268908 13.3647059,22.8638655 11.8352941,21.3310924 L11.6369748,21.1394958 C11.492437,21.0016807 11.3478992,20.8638655 11.2268908,20.7226891 L10.3764706,19.8722689 C10.3630252,19.8621849 10.3462185,19.8554622 10.3361345,19.8453782 L3.61680672,13.1260504 C3.60672269,13.1159664 3.60336134,13.0991597 3.58991597,13.0857143 L2.90084034,12.3966387 C2.77983193,12.2957983 2.64537815,12.1546218 2.50756303,12.010084 L2.31932773,11.8151261 C-0.746218487,8.74957983 -0.746218487,5.37142857 2.31932773,2.30252101 C5.34117647,-0.719327731 8.66890756,-0.76302521 11.6941176,2.17142857 L13.1092437,3.58655462 C13.1159664,3.59327731 13.1260504,3.59663866 13.1327731,3.60336134 L19.8588235,10.3193277 C19.8621849,10.3226891 19.8621849,10.3294118 19.8689076,10.3361345 L21.4386555,11.902521 C21.5058824,11.9697479 21.5764706,12.0369748 21.6369748,12.1109244 Z M11.2336134,11.1764706 C11.5327731,10.8773109 12.0168067,10.8773109 12.312605,11.1764706 C12.6117647,11.4756303 12.6117647,11.9596639 12.312605,12.2588235 C12.0134454,12.5579832 11.5294118,12.5579832 11.2336134,12.2588235 C10.9378151,11.9563025 10.9378151,11.4756303 11.2336134,11.1764706 Z M10.5579832,14.6655462 C10.8571429,14.3663866 11.3378151,14.3663866 11.6369748,14.6655462 C11.9361345,14.9647059 11.9361345,15.4487395 11.6369748,15.7445378 C11.3378151,16.0436975 10.8537815,16.0436975 10.5579832,15.7445378 C10.2588235,15.4487395 10.2588235,14.9647059 10.5579832,14.6655462 Z M15.8890756,10.4134454 C16.1882353,10.712605 16.1882353,11.1966387 15.8890756,11.4957983 C15.589916,11.794958 15.1058824,11.794958 14.810084,11.4957983 C14.5109244,11.1966387 14.5109244,10.712605 14.810084,10.4134454 C15.1092437,10.1142857 15.589916,10.1142857 15.8890756,10.4134454 Z M7.81848739,11.8991597 C8.11764706,11.6 8.60168067,11.6 8.89747899,11.8991597 C9.19663866,12.1983193 9.19663866,12.6823529 8.89747899,12.9781513 C8.59831933,13.2739496 8.11428571,13.2773109 7.81848739,12.9781513 C7.52268908,12.6823529 7.52268908,12.1983193 7.81848739,11.8991597 Z M12.0705882,7.64705882 C12.3697479,7.34789916 12.8537815,7.34789916 13.1495798,7.64705882 C13.4487395,7.94621849 13.4487395,8.4302521 13.1495798,8.72605042 C12.8504202,9.02521008 12.3697479,9.02521008 12.0705882,8.72605042 C11.7714286,8.4302521 11.7714286,7.94621849 12.0705882,7.64705882 L12.0705882,7.64705882 Z" id="Tirita_1Light"></path>
        </g>
    </g>
</svg>

<svg width="24" height="24" viewBox="0 0 24 24" xmlns="http://www.w3.org/2000/svg"><path d="M20.632 20.615c2.605-2.602 2.689-5.24.259-7.835-.054-.064-.101-.104-.145-.148l-.107-.104-1.14-1.14-8.09 8.094.56.558c.128.148.246.26.367.373l.215.209c2.68 2.679 5.399 2.675 8.08-.007zm-17.6-9.512l.205.211c.114.118.225.239.346.343l.393.393 8.095-8.094-1.076-1.075C9.697 1.624 8.387.99 7.079.99c-1.351 0-2.706.67-4.047 2.014-2.686 2.69-2.686 5.412 0 8.098zm1.657 1.657l6.01 6.01 8.09-8.094-6.01-6.01-8.09 8.094zm16.948-.65c2.773 2.962 2.676 6.24-.3 9.214-1.532 1.533-3.145 2.303-4.755 2.303-1.61 0-3.217-.763-4.747-2.296l-.198-.192a5.96 5.96 0 01-.41-.416l-.85-.85c-.014-.01-.03-.018-.04-.028l-6.72-6.719c-.01-.01-.014-.027-.027-.04l-.69-.69c-.12-.1-.255-.241-.392-.386l-.189-.195c-3.065-3.065-3.065-6.444 0-9.512C5.341-.72 8.67-.763 11.694 2.17l1.415 1.416c.007.006.017.01.024.016l6.726 6.716c.003.004.003.01.01.017l1.57 1.567c.067.067.137.134.198.208zm-10.403-.934a.765.765 0 110 1.082.771.771 0 010-1.082zm-.676 3.49c.3-.3.78-.3 1.079 0 .3.299.3.783 0 1.079-.3.299-.783.299-1.079 0a.76.76 0 010-1.08zm5.331-4.253a.765.765 0 11-1.08 1.083.765.765 0 011.08-1.083zM7.82 11.9c.299-.299.783-.299 1.078 0a.764.764 0 01-1.079 1.079.767.767 0 010-1.079zm4.252-4.252c.299-.3.783-.3 1.079 0 .299.3.299.783 0 1.08-.3.298-.78.298-1.08 0a.76.76 0 010-1.08z" fill="#5CB615" fill-rule="nonzero"/></svg>
